;FLAVOR:Marlin
;TIME:357
;Filament used: 0.128183m
;Layer height: 0.1
;MINX:113.316
;MINY:93.316
;MINZ:0.2
;MAXX:136.684
;MAXY:116.686
;MAXZ:2.6
;Generated with Cura_SteamEngine 4.2.1
M82 ;absolute extrusion mode
G21 ; set units to millimeters
G90 ; use absolute positioning
M82 ; absolute extrusion mode
M104 S200 ; set extruder temp
M140 S60 ; set bed temp
M190 S60 ; wait for bed temp
M109 S200 ; wait for extruder temp
G28 W ; home all without mesh bed level
G80 ; mesh bed leveling
G92 E0.0 ; reset extruder distance position
G1 Y-3.0 F1000.0 ; go outside print area
G1 X60.0 E9.0 F1000.0 ; intro line
G1 X100.0 E21.5 F1000.0 ; intro line
G92 E0.0 ; reset extruder distance position
M141 S28
G92 E0
G92 E0
G1 F2100 E-0.8
;LAYER_COUNT:19
;LAYER:0
M107
M204 S1000
M205 X10 Y10
G0 F3240 X116.018 Y97.528 Z0.2
M205 X8 Y8
;TYPE:SKIRT
G1 F2100 E0
G1 F900 X116.251 Y97.26 E0.01122
G1 X116.772 Y96.706 E0.03525
G1 X117.016 Y96.465 E0.04609
G1 X117.293 Y96.213 E0.05792
G1 X117.458 Y96.071 E0.0648
G1 X117.718 Y95.857 E0.07544
G1 X117.899 Y95.715 E0.08271
G1 X118.102 Y95.565 E0.09068
G1 X118.206 Y95.491 E0.09472
G1 X118.455 Y95.318 E0.1043
G1 X118.68 Y95.172 E0.11277
G1 X119.124 Y94.902 E0.12919
G1 X119.43 Y94.732 E0.14025
G1 X120.077 Y94.406 E0.16314
G1 X120.38 Y94.267 E0.17368
G1 X120.79 Y94.098 E0.18769
G1 X121.005 Y94.016 E0.19496
G1 X121.269 Y93.923 E0.2038
G1 X121.489 Y93.852 E0.21111
G1 X121.812 Y93.757 E0.22174
G1 X121.954 Y93.718 E0.2264
G1 X122.256 Y93.64 E0.23625
G1 X122.507 Y93.583 E0.24439
G1 X122.934 Y93.499 E0.25814
G1 X123.07 Y93.474 E0.26251
G1 X123.271 Y93.441 E0.26894
G1 X123.469 Y93.413 E0.27526
G1 X123.732 Y93.382 E0.28363
G1 X123.892 Y93.366 E0.28871
G1 X124.201 Y93.341 E0.2985
G1 X124.451 Y93.328 E0.30641
G1 X124.954 Y93.316 E0.32231
G1 X125.278 Y93.32 E0.33255
G1 X125.92 Y93.352 E0.35286
G1 X126.287 Y93.386 E0.36451
G1 X126.808 Y93.456 E0.38112
G1 X127.026 Y93.491 E0.38809
G1 X127.268 Y93.536 E0.39587
G1 X127.525 Y93.592 E0.40418
G1 X128.129 Y93.742 E0.42385
G1 X128.465 Y93.84 E0.43491
G1 X128.916 Y93.991 E0.44993
G1 X129.07 Y94.045 E0.45509
G1 X129.309 Y94.135 E0.46316
G1 X129.554 Y94.236 E0.47153
G1 X129.923 Y94.401 E0.4843
G1 X130.04 Y94.456 E0.48839
G1 X130.274 Y94.569 E0.4966
G1 X130.478 Y94.673 E0.50383
G1 X130.704 Y94.797 E0.51198
G1 X130.831 Y94.87 E0.51661
G1 X131.084 Y95.02 E0.5259
G1 X131.238 Y95.116 E0.53164
G1 X131.478 Y95.272 E0.54068
G1 X131.626 Y95.372 E0.54632
G1 X131.86 Y95.538 E0.55539
G1 X132.062 Y95.69 E0.56338
G1 X132.471 Y96.017 E0.57992
G1 X132.734 Y96.245 E0.59092
G1 X133.286 Y96.763 E0.61484
G1 X133.527 Y97.008 E0.6257
G1 X133.784 Y97.29 E0.63775
G1 X133.928 Y97.456 E0.6447
G1 X134.129 Y97.7 E0.65469
G1 X134.263 Y97.871 E0.66155
G1 X134.426 Y98.09 E0.67018
G1 X134.507 Y98.203 E0.67457
G1 X134.679 Y98.45 E0.68408
G1 X134.827 Y98.677 E0.69264
G1 X135.088 Y99.106 E0.70851
G1 X135.254 Y99.404 E0.71929
G1 X135.589 Y100.065 E0.7427
G1 X135.733 Y100.379 E0.75362
G1 X135.903 Y100.792 E0.76773
G1 X135.982 Y101 E0.77476
G1 X136.069 Y101.246 E0.783
G1 X136.139 Y101.46 E0.79012
G1 X136.24 Y101.8 E0.80133
G1 X136.28 Y101.943 E0.80602
G1 X136.359 Y102.246 E0.81591
G1 X136.42 Y102.516 E0.82466
G1 X136.503 Y102.943 E0.8384
G1 X136.53 Y103.098 E0.84337
G1 X136.573 Y103.371 E0.85211
G1 X136.608 Y103.651 E0.86102
G1 X136.654 Y104.149 E0.87682
G1 X136.672 Y104.449 E0.88632
G1 X136.684 Y104.954 E0.90228
G1 X136.68 Y105.278 E0.91252
G1 X136.648 Y105.92 E0.93283
G1 X136.614 Y106.287 E0.94448
G1 X136.544 Y106.808 E0.96109
G1 X136.509 Y107.026 E0.96806
G1 X136.464 Y107.268 E0.97584
G1 X136.408 Y107.525 E0.98415
G1 X136.258 Y108.129 E1.00382
G1 X136.163 Y108.457 E1.01461
G1 X136.014 Y108.905 E1.02952
G1 X135.952 Y109.08 E1.03539
G1 X135.86 Y109.322 E1.04357
G1 X135.764 Y109.554 E1.0515
G1 X135.599 Y109.923 E1.06428
G1 X135.544 Y110.04 E1.06836
G1 X135.431 Y110.274 E1.07657
G1 X135.327 Y110.478 E1.08381
G1 X135.203 Y110.704 E1.09195
G1 X135.13 Y110.83 E1.09655
G1 X134.986 Y111.073 E1.10548
G1 X134.894 Y111.223 E1.11104
G1 X134.732 Y111.473 E1.12045
G1 X134.628 Y111.626 E1.1263
G1 X134.462 Y111.86 E1.13536
G1 X134.311 Y112.06 E1.14328
G1 X133.982 Y112.472 E1.15994
G1 X133.751 Y112.739 E1.17109
G1 X133.239 Y113.284 E1.19472
G1 X133 Y113.519 E1.20531
G1 X132.721 Y113.774 E1.21726
G1 X132.554 Y113.919 E1.22424
G1 X132.296 Y114.132 E1.23481
G1 X132.091 Y114.292 E1.24303
G1 X131.805 Y114.501 E1.25422
G1 X131.526 Y114.689 E1.26485
G1 X130.751 Y115.169 E1.29366
G1 X130.402 Y115.363 E1.30627
G1 X130.064 Y115.532 E1.31822
G1 X129.888 Y115.616 E1.32438
G1 X129.565 Y115.76 E1.33555
G1 X129.296 Y115.869 E1.34472
G1 X128.792 Y116.055 E1.3617
G1 X128.511 Y116.148 E1.37105
G1 X128.188 Y116.243 E1.38169
G1 X128.046 Y116.282 E1.38634
G1 X127.744 Y116.36 E1.3962
G1 X127.493 Y116.417 E1.40433
G1 X127.066 Y116.501 E1.41808
G1 X126.93 Y116.526 E1.42245
G1 X126.729 Y116.559 E1.42888
G1 X126.531 Y116.587 E1.4352
G1 X126.268 Y116.618 E1.44357
G1 X126.113 Y116.633 E1.44849
G1 X125.748 Y116.663 E1.46006
G1 X125.494 Y116.677 E1.4681
G1 X125.162 Y116.685 E1.47859
G1 X125.056 Y116.686 E1.48194
G1 X124.797 Y116.686 E1.49013
G1 X124.526 Y116.678 E1.49869
G1 X124.121 Y116.653 E1.51152
G1 X123.799 Y116.621 E1.52174
G1 X123.078 Y116.523 E1.54473
G1 X122.657 Y116.445 E1.55826
G1 X121.918 Y116.27 E1.58226
G1 X121.535 Y116.16 E1.59485
G1 X121.084 Y116.009 E1.60987
G1 X120.93 Y115.955 E1.61503
G1 X120.691 Y115.865 E1.6231
G1 X120.446 Y115.764 E1.63147
G1 X120.077 Y115.599 E1.64425
G1 X119.96 Y115.544 E1.64833
G1 X119.726 Y115.431 E1.65654
G1 X119.522 Y115.327 E1.66378
G1 X119.296 Y115.203 E1.67192
G1 X119.168 Y115.129 E1.67659
G1 X118.905 Y114.973 E1.68625
G1 X118.743 Y114.872 E1.69229
G1 X118.512 Y114.721 E1.70101
G1 X118.376 Y114.629 E1.70619
G1 X118.143 Y114.464 E1.71522
G1 X117.94 Y114.311 E1.72325
G1 X117.528 Y113.982 E1.73991
G1 X117.259 Y113.749 E1.75115
G1 X116.704 Y113.227 E1.77523
G1 X116.464 Y112.982 E1.78606
G1 X116.213 Y112.706 E1.79785
G1 X116.072 Y112.543 E1.80466
G1 X115.862 Y112.288 E1.8151
G1 X115.722 Y112.109 E1.82228
G1 X115.568 Y111.901 E1.83046
G1 X115.491 Y111.794 E1.83462
G1 X115.318 Y111.545 E1.8442
G1 X115.172 Y111.321 E1.85265
G1 X114.9 Y110.874 E1.86918
G1 X114.728 Y110.564 E1.88039
G1 X114.404 Y109.92 E1.90316
G1 X114.264 Y109.612 E1.91385
G1 X114.089 Y109.185 E1.92844
G1 X114.006 Y108.967 E1.93581
G1 X113.918 Y108.715 E1.94424
G1 X113.852 Y108.511 E1.95101
G1 X113.758 Y108.193 E1.96149
G1 X113.719 Y108.05 E1.96618
G1 X113.641 Y107.749 E1.976
G1 X113.582 Y107.492 E1.98433
G1 X113.498 Y107.064 E1.99811
G1 X113.474 Y106.93 E2.00242
G1 X113.441 Y106.729 E2.00885
G1 X113.413 Y106.531 E2.01517
G1 X113.382 Y106.268 E2.02354
G1 X113.367 Y106.11 E2.02855
G1 X113.342 Y105.803 E2.03828
G1 X113.328 Y105.55 E2.04629
G1 X113.316 Y105.041 E2.06238
G1 X113.321 Y104.717 E2.07262
G1 X113.353 Y104.079 E2.0928
G1 X113.386 Y103.713 E2.10441
G1 X113.456 Y103.192 E2.12102
G1 X113.491 Y102.974 E2.128
G1 X113.536 Y102.732 E2.13578
G1 X113.592 Y102.475 E2.14409
G1 X113.742 Y101.871 E2.16375
G1 X113.84 Y101.535 E2.17481
G1 X113.991 Y101.084 E2.18984
G1 X114.045 Y100.93 E2.195
G1 X114.135 Y100.691 E2.20306
G1 X114.236 Y100.446 E2.21144
G1 X114.401 Y100.077 E2.22421
G1 X114.456 Y99.96 E2.2283
G1 X114.569 Y99.726 E2.23651
G1 X114.673 Y99.522 E2.24374
G1 X114.797 Y99.296 E2.25189
G1 X114.868 Y99.173 E2.25637
G1 X115.02 Y98.916 E2.26581
G1 X115.122 Y98.751 E2.27194
G1 X115.276 Y98.515 E2.28084
G1 X115.372 Y98.374 E2.28623
G1 X115.538 Y98.14 E2.2953
G1 X115.689 Y97.94 E2.30321
G1 X116.018 Y97.528 E2.31987
M205 X10 Y10
G0 F3240 X116.33 Y97.778
M205 X8 Y8
G1 F900 X116.542 Y97.534 E2.33009
G1 X117.063 Y96.98 E2.35412
G1 X117.285 Y96.761 E2.36397
G1 X117.562 Y96.509 E2.3758
G1 X117.712 Y96.38 E2.38205
G1 X117.972 Y96.166 E2.39269
G1 X118.137 Y96.037 E2.39931
G1 X118.34 Y95.887 E2.40729
G1 X118.435 Y95.819 E2.41098
G1 X118.684 Y95.646 E2.42056
G1 X118.888 Y95.513 E2.42825
G1 X119.332 Y95.243 E2.44467
G1 X119.61 Y95.089 E2.45471
G1 X120.257 Y94.763 E2.47761
G1 X120.533 Y94.637 E2.48719
G1 X120.943 Y94.468 E2.50121
G1 X121.138 Y94.393 E2.50781
G1 X121.402 Y94.3 E2.51665
G1 X121.602 Y94.236 E2.52329
G1 X121.925 Y94.141 E2.53392
G1 X122.054 Y94.105 E2.53816
G1 X122.356 Y94.027 E2.54801
G1 X122.584 Y93.975 E2.5554
G1 X123.011 Y93.891 E2.56915
G1 X123.135 Y93.869 E2.57313
G1 X123.336 Y93.836 E2.57957
G1 X123.516 Y93.811 E2.58531
G1 X123.779 Y93.78 E2.59368
G1 X123.924 Y93.765 E2.59828
G1 X124.233 Y93.74 E2.60808
G1 X124.461 Y93.728 E2.61529
G1 X124.964 Y93.716 E2.63119
G1 X125.258 Y93.72 E2.64048
G1 X125.9 Y93.752 E2.66079
G1 X126.234 Y93.783 E2.67139
G1 X126.755 Y93.853 E2.688
G1 X126.953 Y93.884 E2.69433
G1 X127.195 Y93.929 E2.70211
G1 X127.428 Y93.98 E2.70965
G1 X128.032 Y94.13 E2.72931
G1 X128.338 Y94.219 E2.73938
G1 X128.789 Y94.37 E2.75441
G1 X128.929 Y94.42 E2.7591
G1 X129.168 Y94.51 E2.76717
G1 X129.391 Y94.601 E2.77478
G1 X129.76 Y94.766 E2.78756
G1 X129.866 Y94.816 E2.79126
G1 X130.1 Y94.929 E2.79947
G1 X130.285 Y95.024 E2.80604
G1 X130.511 Y95.148 E2.81419
G1 X130.627 Y95.214 E2.8184
G1 X130.88 Y95.364 E2.8277
G1 X131.02 Y95.451 E2.8329
G1 X131.26 Y95.607 E2.84195
G1 X131.394 Y95.699 E2.84709
G1 X131.628 Y95.865 E2.85615
G1 X131.812 Y96.003 E2.86342
G1 X132.221 Y96.33 E2.87996
G1 X132.46 Y96.537 E2.88995
G1 X133.012 Y97.055 E2.91387
G1 X133.231 Y97.278 E2.92375
G1 X133.488 Y97.56 E2.9358
G1 X133.619 Y97.711 E2.94212
G1 X133.82 Y97.955 E2.95211
G1 X133.942 Y98.11 E2.95834
G1 X134.105 Y98.329 E2.96697
G1 X134.179 Y98.431 E2.97095
G1 X134.351 Y98.678 E2.98046
G1 X134.485 Y98.885 E2.98825
G1 X134.746 Y99.314 E3.00412
G1 X134.897 Y99.585 E3.01392
G1 X135.232 Y100.246 E3.03734
G1 X135.363 Y100.531 E3.04725
G1 X135.533 Y100.944 E3.06136
G1 X135.605 Y101.133 E3.06775
G1 X135.692 Y101.379 E3.07599
G1 X135.755 Y101.574 E3.08247
G1 X135.856 Y101.914 E3.09368
G1 X135.893 Y102.044 E3.09795
G1 X135.972 Y102.347 E3.10784
G1 X136.028 Y102.593 E3.11581
G1 X136.111 Y103.02 E3.12956
G1 X136.135 Y103.161 E3.13408
G1 X136.178 Y103.434 E3.14281
G1 X136.21 Y103.688 E3.1509
G1 X136.256 Y104.186 E3.1667
G1 X136.272 Y104.459 E3.17534
G1 X136.284 Y104.964 E3.1913
G1 X136.28 Y105.258 E3.20059
G1 X136.248 Y105.9 E3.2209
G1 X136.217 Y106.234 E3.2315
G1 X136.147 Y106.755 E3.24811
G1 X136.116 Y106.953 E3.25444
G1 X136.071 Y107.195 E3.26222
G1 X136.02 Y107.428 E3.26976
G1 X135.87 Y108.032 E3.28942
G1 X135.784 Y108.33 E3.29922
G1 X135.635 Y108.778 E3.31414
G1 X135.578 Y108.937 E3.31948
G1 X135.486 Y109.179 E3.32766
G1 X135.399 Y109.391 E3.3349
G1 X135.234 Y109.76 E3.34767
G1 X135.184 Y109.866 E3.35137
G1 X135.071 Y110.1 E3.35958
G1 X134.976 Y110.285 E3.36615
G1 X134.852 Y110.511 E3.3743
G1 X134.786 Y110.626 E3.37849
G1 X134.642 Y110.869 E3.38741
G1 X134.558 Y111.005 E3.39247
G1 X134.396 Y111.255 E3.40188
G1 X134.301 Y111.394 E3.4072
G1 X134.135 Y111.628 E3.41626
G1 X133.999 Y111.81 E3.42344
G1 X133.67 Y112.222 E3.4401
G1 X133.459 Y112.465 E3.45027
G1 X132.947 Y113.01 E3.4739
G1 X132.731 Y113.224 E3.48351
G1 X132.452 Y113.479 E3.49545
G1 X132.3 Y113.611 E3.50181
G1 X132.042 Y113.824 E3.51238
G1 X131.855 Y113.969 E3.51986
G1 X131.569 Y114.178 E3.53105
G1 X131.315 Y114.349 E3.54072
G1 X130.54 Y114.829 E3.56953
G1 X130.223 Y115.006 E3.581
G1 X129.885 Y115.175 E3.59294
G1 X129.725 Y115.25 E3.59852
G1 X129.402 Y115.394 E3.6097
G1 X129.158 Y115.494 E3.61803
G1 X128.654 Y115.68 E3.63501
G1 X128.398 Y115.764 E3.64352
G1 X128.075 Y115.859 E3.65416
G1 X127.946 Y115.895 E3.65839
G1 X127.644 Y115.973 E3.66824
G1 X127.416 Y116.025 E3.67563
G1 X126.989 Y116.109 E3.68938
G1 X126.865 Y116.131 E3.69336
G1 X126.664 Y116.164 E3.6998
G1 X126.484 Y116.189 E3.70554
G1 X126.221 Y116.22 E3.71391
G1 X126.081 Y116.235 E3.71836
G1 X125.716 Y116.265 E3.72993
G1 X125.484 Y116.277 E3.73727
G1 X125.152 Y116.285 E3.74776
G1 X125.056 Y116.286 E3.7508
G1 X124.797 Y116.286 E3.75898
G1 X124.551 Y116.278 E3.76676
G1 X124.146 Y116.253 E3.77958
G1 X123.853 Y116.225 E3.78888
G1 X123.132 Y116.127 E3.81187
G1 X122.749 Y116.055 E3.82418
G1 X122.01 Y115.88 E3.84818
G1 X121.662 Y115.781 E3.85961
G1 X121.211 Y115.63 E3.87464
G1 X121.071 Y115.58 E3.87934
G1 X120.832 Y115.49 E3.88741
G1 X120.609 Y115.399 E3.89502
G1 X120.24 Y115.234 E3.90779
G1 X120.134 Y115.184 E3.91149
G1 X119.9 Y115.071 E3.9197
G1 X119.715 Y114.976 E3.92627
G1 X119.489 Y114.852 E3.93442
G1 X119.372 Y114.785 E3.93868
G1 X119.109 Y114.629 E3.94834
G1 X118.961 Y114.537 E3.95385
G1 X118.73 Y114.386 E3.96257
G1 X118.607 Y114.302 E3.96727
G1 X118.374 Y114.137 E3.97629
G1 X118.19 Y113.999 E3.98356
G1 X117.778 Y113.67 E4.00022
G1 X117.534 Y113.458 E4.01043
G1 X116.979 Y112.936 E4.03451
G1 X116.76 Y112.713 E4.04438
G1 X116.509 Y112.437 E4.05617
G1 X116.38 Y112.289 E4.06238
G1 X116.17 Y112.034 E4.07281
G1 X116.043 Y111.871 E4.07934
G1 X115.889 Y111.663 E4.08752
G1 X115.819 Y111.565 E4.09133
G1 X115.646 Y111.316 E4.10091
G1 X115.514 Y111.113 E4.10856
G1 X115.242 Y110.666 E4.12509
G1 X115.086 Y110.385 E4.13524
G1 X114.762 Y109.741 E4.15802
G1 X114.634 Y109.46 E4.16778
G1 X114.459 Y109.033 E4.18236
G1 X114.384 Y108.835 E4.18905
G1 X114.296 Y108.583 E4.19749
G1 X114.236 Y108.398 E4.20363
G1 X114.142 Y108.08 E4.21411
G1 X114.106 Y107.949 E4.2184
G1 X114.028 Y107.648 E4.22823
G1 X113.975 Y107.415 E4.23578
G1 X113.891 Y106.987 E4.24956
G1 X113.869 Y106.865 E4.25347
G1 X113.836 Y106.664 E4.25991
G1 X113.811 Y106.484 E4.26565
G1 X113.78 Y106.221 E4.27402
G1 X113.765 Y106.078 E4.27856
G1 X113.74 Y105.771 E4.2883
G1 X113.728 Y105.54 E4.2956
G1 X113.716 Y105.031 E4.31169
G1 X113.72 Y104.737 E4.32098
G1 X113.752 Y104.099 E4.34117
G1 X113.783 Y103.766 E4.35173
G1 X113.853 Y103.245 E4.36834
G1 X113.884 Y103.047 E4.37468
G1 X113.929 Y102.805 E4.38245
G1 X113.98 Y102.572 E4.38999
G1 X114.13 Y101.968 E4.40965
G1 X114.219 Y101.662 E4.41972
G1 X114.37 Y101.211 E4.43475
G1 X114.42 Y101.071 E4.43945
G1 X114.51 Y100.832 E4.44752
G1 X114.601 Y100.609 E4.45513
G1 X114.766 Y100.24 E4.4679
G1 X114.816 Y100.134 E4.4716
G1 X114.929 Y99.9 E4.47981
G1 X115.024 Y99.715 E4.48639
G1 X115.148 Y99.489 E4.49453
G1 X115.212 Y99.377 E4.49861
G1 X115.364 Y99.12 E4.50804
G1 X115.457 Y98.97 E4.51362
G1 X115.611 Y98.734 E4.52252
G1 X115.699 Y98.606 E4.52743
G1 X115.865 Y98.372 E4.5365
G1 X116.001 Y98.19 E4.54367
G1 X116.33 Y97.778 E4.56033
M205 X10 Y10
G0 F3240 X116.643 Y98.028
M205 X8 Y8
G1 F900 X116.834 Y97.808 E4.56954
G1 X117.355 Y97.254 E4.59357
G1 X117.554 Y97.057 E4.60242
G1 X117.831 Y96.805 E4.61425
G1 X117.966 Y96.688 E4.61989
G1 X118.226 Y96.474 E4.63053
G1 X118.375 Y96.359 E4.63648
G1 X118.578 Y96.209 E4.64446
G1 X118.663 Y96.148 E4.64776
G1 X118.912 Y95.975 E4.65734
G1 X119.096 Y95.855 E4.66428
G1 X119.54 Y95.585 E4.6807
G1 X119.79 Y95.446 E4.68974
G1 X120.437 Y95.12 E4.71263
G1 X120.685 Y95.007 E4.72124
G1 X121.095 Y94.838 E4.73526
G1 X121.271 Y94.771 E4.74121
G1 X121.535 Y94.678 E4.75005
G1 X121.715 Y94.619 E4.75604
G1 X122.038 Y94.524 E4.76667
G1 X122.154 Y94.492 E4.77048
G1 X122.456 Y94.414 E4.78033
G1 X122.661 Y94.368 E4.78697
G1 X123.088 Y94.284 E4.80072
G1 X123.2 Y94.264 E4.80432
G1 X123.401 Y94.231 E4.81075
G1 X123.563 Y94.208 E4.81592
G1 X123.826 Y94.177 E4.82429
G1 X123.957 Y94.164 E4.82845
G1 X124.266 Y94.139 E4.83824
G1 X124.47 Y94.128 E4.8447
G1 X124.973 Y94.116 E4.8606
G1 X125.238 Y94.119 E4.86897
G1 X125.88 Y94.151 E4.88928
G1 X126.18 Y94.179 E4.8988
G1 X126.701 Y94.249 E4.91541
G1 X126.88 Y94.278 E4.92114
G1 X127.122 Y94.323 E4.92892
G1 X127.332 Y94.368 E4.93571
G1 X127.936 Y94.518 E4.95537
G1 X128.211 Y94.598 E4.96442
G1 X128.662 Y94.749 E4.97945
G1 X128.788 Y94.794 E4.98367
G1 X129.027 Y94.884 E4.99174
G1 X129.228 Y94.967 E4.99861
G1 X129.597 Y95.132 E5.01139
G1 X129.692 Y95.176 E5.01469
G1 X129.926 Y95.289 E5.02291
G1 X130.093 Y95.375 E5.02884
G1 X130.319 Y95.499 E5.03699
G1 X130.423 Y95.558 E5.04076
G1 X130.676 Y95.708 E5.05006
G1 X130.802 Y95.787 E5.05476
G1 X131.042 Y95.943 E5.0638
G1 X131.163 Y96.025 E5.06842
G1 X131.397 Y96.191 E5.07748
G1 X131.562 Y96.315 E5.08401
G1 X131.971 Y96.642 E5.10055
G1 X132.186 Y96.829 E5.10956
G1 X132.738 Y97.347 E5.13347
